X:58
T:Irish Whim, The
M:2/4
L:1/8
B:Thompson's Compleat Collection of 200 Favourite Country Dances, vol. 1 (London, 1757)
Z:Transcribed and edited by Fynnian Titford-Mock, 2007
Z:abc's:AK/Fiddler's Companion
K:G
GG Bd|g2 B2|c/B/c/d/ cB|A/G/A/B/ AD|GG Bd|g2B2|c/B/c/d/ A/B/c/d/|BG G2:|
|:B/d/B/G/ B/d/B/G/|c/e/c/A/ c/e/c/A/|B/d/B/G/ B/d/B/G/|e/d/c/B/ {B}A2|
B/d/B/G/ B/d/B/G/|c/e/c/A/ c/e/c/A/|B/c/d/B/ f/g/a/f/|g/G/G/G/ G2:|

